!!!SOCIAL_FUNCTION:	songs for little children
!!!PDT:	1939
!!!OTL: No_112_"In_the_Treetop".krn
!!!LANG: Non-Tone
!!!LING_GROUP: Wakashan
!!!REG: Pacific Northwest
**kern
*staff1
=1-
*clefF4
*k[f#c#]
*M3/4
2r
8r
16r
16D\
=2
2E\
8.r
16F#\
=3
2E\
8.r
16E\
=4
2D\
8.r
16D\
=5||
*M2/4
(4BB/
8AA/)
16r
16D\
=6
2E\
=7
4r
16D\LL
16D\
16D\
16D\JJ
=8||
*M3/4
4E\
8.r
16F#\
8E\
16r
16E\
=9||
*M2/4
[2D\
=10
4D\]
8BB/
16r
16E\
=11
4..D\
16D\
=12
4BB/
8AA/
16r
16D\
=13
[2E\
=14
4E\]
8.r
16E\
=15
4D\
8BB/
16r
16D\
=16
4..E\
16F#\
=17
4E\
8.r
16E\
=18
[2D\
=19
4D\]
8BB/
16r
16E\
=20||
*M3/4
2D\
8.r
16D\
=21
4BB/
8AA/
8r
4r
==
*-
